static/img/kroki/bf09718287b834a37bde85cbd882f1c2.svg

<?xml version="1.0" encoding="us-ascii" standalone="no"?><svg xmlns="http://www.w3.org/2000/svg" xmlns:xlink="http://www.w3.org/1999/xlink" contentStyleType="text/css" height="374px" preserveAspectRatio="none" style="width:443px;height:374px;" version="1.1" viewBox="0 0 443 374" width="443px" zoomAndPan="magnify"><defs/><g><!--class azure_network_interface--><g id="elem_azure_network_interface"><rect codeLine="23" fill="#3D176E" height="39.7891" id="azure_network_interface" rx="2.5" ry="2.5" style="stroke:#000D19;stroke-width:0.5;" width="250" x="97" y="328.58"/><ellipse cx="112" cy="348.4745" fill="#ADD1B2" rx="11" ry="11" style="stroke:#181818;stroke-width:1.0;"/><path d="M114.9688,354.1152 Q114.3906,354.412 113.75,354.5527 Q113.1094,354.7089 112.4063,354.7089 Q109.9063,354.7089 108.5781,353.0683 Q107.2656,351.412 107.2656,348.287 Q107.2656,345.162 108.5781,343.5058 Q109.9063,341.8495 112.4063,341.8495 Q113.1094,341.8495 113.75,342.0058 Q114.4063,342.162 114.9688,342.4589 L114.9688,345.1777 Q114.3438,344.5995 113.75,344.3339 Q113.1563,344.0527 112.5313,344.0527 Q111.1875,344.0527 110.5,345.1308 Q109.8125,346.1933 109.8125,348.287 Q109.8125,350.3808 110.5,351.4589 Q111.1875,352.5214 112.5313,352.5214 Q113.1563,352.5214 113.75,352.2558 Q114.3438,351.9745 114.9688,351.3964 L114.9688,354.1152 Z " fill="#000000"/><text fill="#D9B8FF" font-family="Helvetica" font-size="17" lengthAdjust="spacing" textLength="208" x="131" y="354.3598">azure_network_interface</text></g><!--class microsoft_resource--><g id="elem_microsoft_resource"><rect codeLine="26" fill="#3D176E" height="39.7891" id="microsoft_resource" rx="2.5" ry="2.5" style="stroke:#000D19;stroke-width:0.5;" width="200" x="7" y="167.79"/><ellipse cx="22" cy="187.6845" fill="#ADD1B2" rx="11" ry="11" style="stroke:#181818;stroke-width:1.0;"/><path d="M24.9688,193.3252 Q24.3906,193.622 23.75,193.7627 Q23.1094,193.9189 22.4063,193.9189 Q19.9063,193.9189 18.5781,192.2783 Q17.2656,190.622 17.2656,187.497 Q17.2656,184.372 18.5781,182.7158 Q19.9063,181.0595 22.4063,181.0595 Q23.1094,181.0595 23.75,181.2158 Q24.4063,181.372 24.9688,181.6689 L24.9688,184.3877 Q24.3438,183.8095 23.75,183.5439 Q23.1563,183.2627 22.5313,183.2627 Q21.1875,183.2627 20.5,184.3408 Q19.8125,185.4033 19.8125,187.497 Q19.8125,189.5908 20.5,190.6689 Q21.1875,191.7314 22.5313,191.7314 Q23.1563,191.7314 23.75,191.4658 Q24.3438,191.1845 24.9688,190.6064 L24.9688,193.3252 Z " fill="#000000"/><text fill="#D9B8FF" font-family="Helvetica" font-size="17" lengthAdjust="spacing" textLength="158" x="41" y="193.5698">microsoft_resource</text></g><!--class network_interface--><g id="elem_network_interface"><rect codeLine="29" fill="#3D176E" height="39.7891" id="network_interface" rx="2.5" ry="2.5" style="stroke:#000D19;stroke-width:0.5;" width="195" x="241.5" y="167.79"/><ellipse cx="256.5" cy="187.6845" fill="#ADD1B2" rx="11" ry="11" style="stroke:#181818;stroke-width:1.0;"/><path d="M259.4688,193.3252 Q258.8906,193.622 258.25,193.7627 Q257.6094,193.9189 256.9063,193.9189 Q254.4063,193.9189 253.0781,192.2783 Q251.7656,190.622 251.7656,187.497 Q251.7656,184.372 253.0781,182.7158 Q254.4063,181.0595 256.9063,181.0595 Q257.6094,181.0595 258.25,181.2158 Q258.9063,181.372 259.4688,181.6689 L259.4688,184.3877 Q258.8438,183.8095 258.25,183.5439 Q257.6563,183.2627 257.0313,183.2627 Q255.6875,183.2627 255,184.3408 Q254.3125,185.4033 254.3125,187.497 Q254.3125,189.5908 255,190.6689 Q255.6875,191.7314 257.0313,191.7314 Q257.6563,191.7314 258.25,191.4658 Q258.8438,191.1845 259.4688,190.6064 L259.4688,193.3252 Z " fill="#000000"/><text fill="#D9B8FF" font-family="Helvetica" font-size="17" lengthAdjust="spacing" textLength="153" x="275.5" y="193.5698">network_interface</text></g><!--class resource--><g id="elem_resource"><rect codeLine="32" fill="#3D176E" height="39.7891" id="resource" rx="2.5" ry="2.5" style="stroke:#000D19;stroke-width:0.5;" width="113" x="165.5" y="7"/><ellipse cx="180.5" cy="26.8945" fill="#ADD1B2" rx="11" ry="11" style="stroke:#181818;stroke-width:1.0;"/><path d="M183.4688,32.5352 Q182.8906,32.832 182.25,32.9727 Q181.6094,33.1289 180.9063,33.1289 Q178.4063,33.1289 177.0781,31.4883 Q175.7656,29.832 175.7656,26.707 Q175.7656,23.582 177.0781,21.9258 Q178.4063,20.2695 180.9063,20.2695 Q181.6094,20.2695 182.25,20.4258 Q182.9063,20.582 183.4688,20.8789 L183.4688,23.5977 Q182.8438,23.0195 182.25,22.7539 Q181.6563,22.4727 181.0313,22.4727 Q179.6875,22.4727 179,23.5508 Q178.3125,24.6133 178.3125,26.707 Q178.3125,28.8008 179,29.8789 Q179.6875,30.9414 181.0313,30.9414 Q181.6563,30.9414 182.25,30.6758 Q182.8438,30.3945 183.4688,29.8164 L183.4688,32.5352 Z " fill="#000000"/><text fill="#D9B8FF" font-family="Helvetica" font-size="17" lengthAdjust="spacing" textLength="71" x="199.5" y="32.7798">resource</text></g><!--reverse link microsoft_resource to azure_network_interface--><g id="link_microsoft_resource_azure_network_interface"><path codeLine="35" d="M131.4301,222.4168 C153.5401,252.9368 185.94,297.69 208.08,328.25 " fill="none" id="microsoft_resource-backto-azure_network_interface" style="stroke:#FFAF37;stroke-width:2.0;"/><polygon fill="none" points="120.87,207.84,126.5711,225.9369,136.289,218.8968,120.87,207.84" style="stroke:#FFAF37;stroke-width:2.0;"/></g><!--reverse link network_interface to azure_network_interface--><g id="link_network_interface_azure_network_interface"><path codeLine="36" d="M314.2119,222.3306 C291.7219,252.8506 258.68,297.69 236.16,328.25 " fill="none" id="network_interface-backto-azure_network_interface" style="stroke:#FFAF37;stroke-width:2.0;"/><polygon fill="none" points="324.89,207.84,309.3817,218.7713,319.0421,225.89,324.89,207.84" style="stroke:#FFAF37;stroke-width:2.0;"/></g><!--reverse link resource to microsoft_resource--><g id="link_resource_microsoft_resource"><path codeLine="37" d="M197.5699,61.6268 C175.4599,92.1468 143.06,136.9 120.92,167.46 " fill="none" id="resource-backto-microsoft_resource" style="stroke:#FFAF37;stroke-width:2.0;"/><polygon fill="none" points="208.13,47.05,192.711,58.1068,202.4289,65.1469,208.13,47.05" style="stroke:#FFAF37;stroke-width:2.0;"/></g><!--reverse link resource to network_interface--><g id="link_resource_network_interface"><path codeLine="38" d="M246.7881,61.5406 C269.2781,92.0606 302.32,136.9 324.84,167.46 " fill="none" id="resource-backto-network_interface" style="stroke:#FFAF37;stroke-width:2.0;"/><polygon fill="none" points="236.11,47.05,241.9579,65.1,251.6183,57.9813,236.11,47.05" style="stroke:#FFAF37;stroke-width:2.0;"/></g><!--SRC=[XP11Jm9138Nl-oicuKm24WKIBq1Yz4ACU2TbfmEJtPsIJbS2wdyN1Cqm0ykrx-jxhrrPZGghjMnLXTK2sMU-i6uD39KQCTDcGYMnQXa3fjUFnIToSXEOGeNg6SiF59j3JBolR5uuz5xT1T8OycB9L3jzj1S6v_SIEWceIGdUZqJOBch1e8mUBWR6n6HiskhfRly14unO8v-GJgUZkyCOkHdLUFS_CRCxLDtmQLCIJ6ec4RzKOyi34PHC3ltJhtPy1QsjMwhxOFPsxCGE-Mm-Mu6cpO4sKFemnWioacpNE4ckmk50c_v5-EKQdEM7rodOrOnpXx8XBkRMxHSDvAW-i-pxX5GsP_9aPCxegUPpjN7rVE62qUDNkzs-LY9BlPlvo3RDYudKuWS0]--></g></svg>

<svg xmlns="http://www.w3.org/2000/svg" width="443" height="374" viewBox="0 0 443 374"><rect width="250" height="39.789" x="97" y="328.58" fill="#3D176E" rx="2.5" ry="2.5" style="stroke:#000d19;stroke-width:.5"/><circle cx="112" cy="348.474" r="11" fill="#ADD1B2" style="stroke:#181818;stroke-width:1"/><path d="M114.969 354.115q-.578.297-1.219.438-.64.156-1.344.156-2.5 0-3.828-1.64-1.312-1.657-1.312-4.782t1.312-4.781q1.328-1.656 3.828-1.656.703 0 1.344.156.656.156 1.219.453v2.719q-.625-.579-1.219-.844-.594-.281-1.219-.281-1.344 0-2.031 1.078-.687 1.062-.687 3.156t.687 3.172q.688 1.062 2.031 1.062.625 0 1.219-.265.594-.281 1.219-.86z"/><text x="131" y="354.36" fill="#D9B8FF" font-family="Helvetica" font-size="17" textLength="208">azure_network_interface</text><rect width="200" height="39.789" x="7" y="167.79" fill="#3D176E" rx="2.5" ry="2.5" style="stroke:#000d19;stroke-width:.5"/><circle cx="22" cy="187.685" r="11" fill="#ADD1B2" style="stroke:#181818;stroke-width:1"/><path d="M24.969 193.325q-.578.297-1.219.438-.64.156-1.344.156-2.5 0-3.828-1.64-1.312-1.657-1.312-4.782t1.312-4.781q1.328-1.656 3.828-1.656.703 0 1.344.156.656.156 1.219.453v2.719q-.625-.578-1.219-.844-.594-.281-1.219-.281-1.343 0-2.031 1.078-.687 1.062-.687 3.156t.687 3.172q.688 1.062 2.031 1.062.625 0 1.219-.265.594-.281 1.219-.86z"/><text x="41" y="193.57" fill="#D9B8FF" font-family="Helvetica" font-size="17" textLength="158">microsoft_resource</text><rect width="195" height="39.789" x="241.5" y="167.79" fill="#3D176E" rx="2.5" ry="2.5" style="stroke:#000d19;stroke-width:.5"/><circle cx="256.5" cy="187.685" r="11" fill="#ADD1B2" style="stroke:#181818;stroke-width:1"/><path d="M259.469 193.325q-.578.297-1.219.438-.64.156-1.344.156-2.5 0-3.828-1.64-1.312-1.657-1.312-4.782t1.312-4.781q1.328-1.656 3.828-1.656.703 0 1.344.156.656.156 1.219.453v2.719q-.625-.578-1.219-.844-.594-.281-1.219-.281-1.344 0-2.031 1.078-.687 1.062-.687 3.156t.687 3.172q.688 1.062 2.031 1.062.625 0 1.219-.265.594-.281 1.219-.86z"/><text x="275.5" y="193.57" fill="#D9B8FF" font-family="Helvetica" font-size="17" textLength="153">network_interface</text><rect width="113" height="39.789" x="165.5" y="7" fill="#3D176E" rx="2.5" ry="2.5" style="stroke:#000d19;stroke-width:.5"/><circle cx="180.5" cy="26.895" r="11" fill="#ADD1B2" style="stroke:#181818;stroke-width:1"/><path d="M183.469 32.535q-.578.297-1.219.438-.64.156-1.344.156-2.5 0-3.828-1.64-1.312-1.657-1.312-4.782t1.312-4.781q1.328-1.656 3.828-1.656.703 0 1.344.156.656.156 1.219.453v2.719q-.625-.578-1.219-.844-.594-.281-1.219-.281-1.344 0-2.031 1.078-.687 1.062-.687 3.156t.687 3.172q.688 1.062 2.031 1.062.625 0 1.219-.265.594-.281 1.219-.86z"/><text x="199.5" y="32.78" fill="#D9B8FF" font-family="Helvetica" font-size="17" textLength="71">resource</text><g fill="none"><path d="M131.43 222.417c22.11 30.52 54.51 75.273 76.65 105.833" style="stroke:#ffaf37;stroke-width:2"/><path d="m120.87 207.84 5.701 18.097 9.718-7.04z" style="stroke:#ffaf37;stroke-width:2"/></g><path fill="none" d="M314.212 222.33 236.16 328.25m88.73-120.41-15.508 10.931 9.66 7.119z" style="stroke:#ffaf37;stroke-width:2"/><g fill="none"><path d="M197.57 61.627c-22.11 30.52-54.51 75.273-76.65 105.833" style="stroke:#ffaf37;stroke-width:2"/><path d="m208.13 47.05-15.419 11.057 9.718 7.04z" style="stroke:#ffaf37;stroke-width:2"/></g><path fill="none" d="m246.788 61.54 78.052 105.92M236.11 47.05l5.848 18.05 9.66-7.119z" style="stroke:#ffaf37;stroke-width:2"/></svg>
